X: 1
T: The Youthful Drummer
R: reel
M: 4/4
L: 1/8
K: C
C: Gordon F. MacQuarrie
N: The Cape Breton Collection Of Scottish Melodies (1940), p22
F| ECcG ABcA | GEcE D/D/D D| ECcG ABcG |gage c/c/c c2 |
 ECcG ABcA | GEcE D/D/D D| {b}agab gece | dcde c/c/c c ||
e| egcg egcg | fage d/d/d df | egcg egcg | fage c/c/c / cg |
 egcg egcg | fage d/d/d df |  {b}agab gaeg | BGAB c/c/c c|]
